X: 1
T: Long Haul, The
M: 3/4
L: 1/8
R: mazurka
K: Gmaj
|:EDG|B2 BABc|A2 ABcA|d^cd=cAF|GFGEDG|
B2 BABc|A2 ABcA|d^cd=cAF|G3:|
|:ABc|d2 defd|g2 gefg|a2 abag|fedBcA|
B2 BABc|A2 ABcA|d^cd=cAF|G3:|
